!!!OTL: LASST UNS IHR BRUEDER WEISHEIT ERHOEHN
!!!ARE: Europa, Mitteleuropa, Deutschland
!!!SCT: B0298
!!!YEM: Copyright 1995, estate of Helmut Schaffrath.
**kern
*ICvox
*Ivox
*M3/4
*k[f#]
*G:
=1
{4g
4b
8dd
8b
=2
4a
4f#
4d}
=3
{4g
8b
8g
8dd
8b
=4
2a
4r}
=5
{4cc
4cc
4cc
=6
4.b
8a
4g}
=7
{4a
4g
4f#
=8
8g
8a
8b
8cc
4dd}
=9
{4ee
4ee
4ee
=10
4.dd
8cc
4b}
=11
{8dd
8cc
4b
4a
=12
2g
4r}
==
!!!AGN: Stimmungs - Lied, Freude, Freundschaft, Freimaurer - Gesang
!!!ONB: ESAC (Essen Associative Code) Database: BOEHME
!!!AMT: simple triple
!!!AIN: vox
!!!EED: Helmut Schaffrath
!!!EEV: 1.0
*-
